!!!OTL: Der Reiter.
!!!OTL-incipit: DER REITER SPREITET SEINEN MANTEL AUS
!!!ARE: Europa, Mitteleuropa, Deutschland, Niederrhein
!!!SCT: Z1084
!!!TXL: @@DE
!!!YEM: Copyright 1995, estate of Helmut Schaffrath.
**kern	**text
*ICvox	*
*M4/4	*
*met(c)	*
*k[]	*
*a:	*
!LO:TX:a:t=Niederrhein.	!
{4e	Der
=1	=1
4a	Rei-
4a	-ter
8cc	ſpreitet
8cc	.
8dd	ſei-
8b	-nen
=2	=2
4cc	Man-
4cc	-tel
4g}	aus
{4g	wohl
=3	=3
4a	in
8eL	das
8fJ	.
4g	grü-
4g	-ne
=4	=4
2e	Gras
4r}	.
{8cL	da
8dJ	.
=5	=5
4e	leg'
8e	dich,
8e	du
4g	wack'res
8g	.
8g	Braun-
=6	=6
4.e	-mäg-
8d	-de-
4c}	-lein,
{4a	mach'
=7	=7
4e	dir
4a	dein
4b	Haupt
4cc	nicht
=8	=8
(2b	naß,
4ee)}	.
{8eeL	wohl
8dd#J	.
=9	=9
4ee	in
8aL	dem
8bJ	.
4cc	grü-
4e	-nen
=10	=10
2a	Gras!
4r}	.
==	==
!!!Ag: Romanze, Ballade
!!!ONB: ESAC (Essen Associative Code) Database: ZUCCAL
!!!AMT: simple quadruple
!!!AIN: vox
!!!EED: Helmut Schaffrath
!!!EEV: 1.0
!!!GTL: II. Gau- Leuschen.
!!!URL-scan: https://www.digitale-sammlungen.de/de/view/bsb11160573?page=181
!!!ENC: Anna Maria Matuszewska
!!!EEV: 2025/02/04
*-	*-
